X: 36573
T: Shady Road To Clamper, The
R: polka
M: 2/4
K: Gmajor
|:D|G2 Bd|gd ed|G2 Bd|eB d2|
G2 Bd|gd ed|e/f/g/e/ dB|DE G:|
|:A|B2 BA|Bd ed|B2 Bd|B/A/G A2|
B2 BA|Bd ed|e/f/g/e/ dB|DE G:|

